web/packages/design/src/ResourceIcon/assets/sixsense-light.svg

<svg width="72" height="72" viewBox="0 0 72 72" fill="none" xmlns="http://www.w3.org/2000/svg">
<path d="M40.8156 24.9468C43.6011 25.5297 46.3137 26.6194 48.8078 28.2291L40.544 38.0495H40.5407C38.3075 37.0285 35.8013 36.7669 33.4053 37.3046C31.0093 37.8423 28.8552 39.1497 27.2724 41.0271C25.6928 42.9001 24.7742 45.2413 24.6587 47.6888C24.5431 50.1362 25.2371 52.5535 26.6332 54.567L18.3661 64.3874C14.4134 60.1442 12.1513 54.6004 12.0073 48.8032C11.8633 43.0059 13.8473 37.3566 17.5845 32.9224L45.3035 0L54.9915 8.10473L40.8156 24.9468Z" fill="#13BBB2"/>
<path d="M54.1432 63.5027C46.3167 72.7965 32.8794 74.6281 22.9199 68.1993L31.1869 58.3789C33.4202 59.3999 35.9264 59.6616 38.3224 59.1239C40.7184 58.5862 42.8724 57.2787 44.4553 55.4013C46.0338 53.5277 46.9515 51.1864 47.0664 48.7391C47.1814 46.2918 46.4872 43.8748 45.0912 41.8614L53.3615 32.041C57.3141 36.2837 59.576 41.8269 59.72 47.6236C59.864 53.4203 57.8801 59.0691 54.1432 63.5027Z" fill="black"/>
</svg>

<svg xmlns="http://www.w3.org/2000/svg" width="72" height="72" fill="none" viewBox="0 0 72 72"><path fill="#13bbb2" d="M40.816 24.947a23.7 23.7 0 0 1 7.992 3.282l-8.264 9.82h-.003a11.24 11.24 0 0 0-13.269 2.978 11.15 11.15 0 0 0-.639 13.54l-8.267 9.82a23.73 23.73 0 0 1-.782-31.465L45.305 0l9.688 8.105z"/><path fill="#000" d="M54.143 63.503c-7.826 9.293-21.264 11.125-31.223 4.696l8.267-9.82A11.24 11.24 0 0 0 44.455 55.4a11.15 11.15 0 0 0 .636-13.54l8.27-9.82a23.724 23.724 0 0 1 .782 31.462"/></svg>
